src/assets/icons/assassination.svg

<?xml version="1.0" encoding="utf-8"?>
<!-- Generator: Adobe Illustrator 26.5.0, SVG Export Plug-In . SVG Version: 6.00 Build 0)  -->
<svg version="1.1" id="Ebene_1" xmlns="http://www.w3.org/2000/svg" xmlns:xlink="http://www.w3.org/1999/xlink" x="0px" y="0px"
	 viewBox="0 0 48 48" style="enable-background:new 0 0 48 48;" xml:space="preserve">
<path d="M38.5,44.9c-1.8,0-3.3-0.6-4.6-1.9c-1.3-1.2-1.9-2.8-1.9-4.5c0-0.9,0.2-1.7,0.5-2.5s0.8-1.4,1.4-2l4.6-4.5L43,34
	c0.6,0.6,1.1,1.3,1.4,2c0.3,0.8,0.5,1.6,0.5,2.5c0,1.8-0.6,3.3-1.9,4.5C41.8,44.3,40.2,44.9,38.5,44.9z M45,12.3L22.2,35.1l0.8,0.8
	c0.4,0.9,0.5,1.8,0.3,2.7s-0.6,1.8-1.3,2.5L20.1,43l-4.4-4.4l-5.6,5.6c-0.5,0.5-1,0.7-1.7,0.7s-1.2-0.2-1.7-0.7l-2.9-2.9
	c-0.5-0.5-0.8-1-0.8-1.7c0-0.7,0.2-1.2,0.8-1.7l5.6-5.5L5,27.9L6.8,26c0.7-0.7,1.6-1.1,2.5-1.3c0.9-0.2,1.9,0,2.7,0.3l0.9,0.8
	L35.8,3.1H45V12.3z"/>
</svg>

<?xml version="1.0" encoding="UTF-8" standalone="no"?>
<!-- Generator: Adobe Illustrator 26.5.0, SVG Export Plug-In . SVG Version: 6.00 Build 0)  -->

<svg
   version="1.1"
   id="Ebene_1"
   x="0px"
   y="0px"
   viewBox="0 0 48 48"
   style="enable-background:new 0 0 48 48;"
   xml:space="preserve"
   sodipodi:docname="assassination.svg"
   inkscape:version="1.2.1 (9c6d41e410, 2022-07-14)"
   xmlns:inkscape="http://www.inkscape.org/namespaces/inkscape"
   xmlns:sodipodi="http://sodipodi.sourceforge.net/DTD/sodipodi-0.dtd"
   xmlns="http://www.w3.org/2000/svg"
   xmlns:svg="http://www.w3.org/2000/svg"><defs
   id="defs66" /><sodipodi:namedview
   id="namedview64"
   pagecolor="#505050"
   bordercolor="#eeeeee"
   borderopacity="1"
   inkscape:showpageshadow="0"
   inkscape:pageopacity="0"
   inkscape:pagecheckerboard="0"
   inkscape:deskcolor="#505050"
   showgrid="false"
   inkscape:zoom="4.9166667"
   inkscape:cx="24"
   inkscape:cy="24.101695"
   inkscape:window-width="1500"
   inkscape:window-height="930"
   inkscape:window-x="-6"
   inkscape:window-y="-6"
   inkscape:window-maximized="1"
   inkscape:current-layer="Ebene_1" />
<path
   id="path61"
   d="M 38.5,44.9 C 36.7,44.9 35.2,44.3 33.9,43 32.6,41.8 32,40.2 32,38.5 c 0,-0.9 0.2,-1.7 0.5,-2.5 0.3,-0.8 0.8,-1.4 1.4,-2 L 38.5,29.5 43,34 c 0.6,0.6 1.1,1.3 1.4,2 0.3,0.8 0.5,1.6 0.5,2.5 0,1.8 -0.6,3.3 -1.9,4.5 -1.2,1.3 -2.8,1.9 -4.5,1.9 z M 45,12.3 22.2,35.1 23,35.9 c 0.4,0.9 0.5,1.8 0.3,2.7 -0.2,0.9 -0.6,1.8 -1.3,2.5 l -1.9,1.9 -4.4,-4.4 -5.6,5.6 c -0.5,0.5 -1,0.7 -1.7,0.7 -0.7,0 -1.2,-0.2 -1.7,-0.7 L 3.8,41.3 C 3.3,40.8 3,40.3 3,39.6 3,38.9 3.2,38.4 3.8,37.9 L 9.4,32.4 5,27.9 6.8,26 c 0.7,-0.7 1.6,-1.1 2.5,-1.3 0.9,-0.2 1.9,0 2.7,0.3 L 12.9,25.8 35.8,3.1 H 45 Z" />
</svg>
